images/captura/button_crear_gifo_hover.svg

<?xml version="1.0" encoding="UTF-8" standalone="no"?>
<svg
   xmlns:dc="http://purl.org/dc/elements/1.1/"
   xmlns:cc="http://creativecommons.org/ns#"
   xmlns:rdf="http://www.w3.org/1999/02/22-rdf-syntax-ns#"
   xmlns:svg="http://www.w3.org/2000/svg"
   xmlns="http://www.w3.org/2000/svg"
   xmlns:xlink="http://www.w3.org/1999/xlink"
   xmlns:sodipodi="http://sodipodi.sourceforge.net/DTD/sodipodi-0.dtd"
   xmlns:inkscape="http://www.inkscape.org/namespaces/inkscape"
   width="54px"
   height="54px"
   viewBox="0 0 54 54"
   version="1.1"
   id="svg19"
   sodipodi:docname="button_crear_gifo_hover.svg"
   inkscape:version="0.92.5 (2060ec1f9f, 2020-04-08)">
  <metadata
     id="metadata23">
    <rdf:RDF>
      <cc:Work
         rdf:about="">
        <dc:format>image/svg+xml</dc:format>
        <dc:type
           rdf:resource="http://purl.org/dc/dcmitype/StillImage" />
        <dc:title>button-crear-gifo</dc:title>
      </cc:Work>
    </rdf:RDF>
  </metadata>
  <sodipodi:namedview
     pagecolor="#ffffff"
     bordercolor="#666666"
     borderopacity="1"
     objecttolerance="10"
     gridtolerance="10"
     guidetolerance="10"
     inkscape:pageopacity="0"
     inkscape:pageshadow="2"
     inkscape:window-width="1920"
     inkscape:window-height="1023"
     id="namedview21"
     showgrid="false"
     inkscape:zoom="4.3703704"
     inkscape:cx="27"
     inkscape:cy="27"
     inkscape:window-x="0"
     inkscape:window-y="0"
     inkscape:window-maximized="1"
     inkscape:current-layer="00-UI-Kit" />
  <!-- Generator: Sketch 63.1 (92452) - https://sketch.com -->
  <title
     id="title2">button-crear-gifo</title>
  <desc
     id="desc4">Created with Sketch.</desc>
  <defs
     id="defs7">
    <path
       d="M27,19 C27.5522847,19 28,19.4477153 28,20 L28,20 L28,26 L34,26 C34.5128358,26 34.9355072,26.3860402 34.9932723,26.8833789 L35,27 C35,27.5522847 34.5522847,28 34,28 L34,28 L28,28 L28,34 C28,34.5128358 27.6139598,34.9355072 27.1166211,34.9932723 L27,35 C26.4477153,35 26,34.5522847 26,34 L26,34 L26,28 L20,28 C19.4871642,28 19.0644928,27.6139598 19.0067277,27.1166211 L19,27 C19,26.4477153 19.4477153,26 20,26 L20,26 L26,26 L26,20 C26,19.4871642 26.3860402,19.0644928 26.8833789,19.0067277 Z"
       id="path-1" />
  </defs>
  <g
     id="GIFOS"
     stroke="none"
     stroke-width="1"
     fill="none"
     fill-rule="evenodd">
    <g
       id="00-UI-Kit"
       transform="translate(-169.000000, -2765.000000)">
      <g
         id="g15"
         transform="translate(169.000000, 2765.000000)">
        <g
           id="Group-3">
          <circle
             id="Oval-3"
             stroke="#572EE5"
             fill="#FFFFFF"
             fill-rule="nonzero"
             cx="27"
             cy="27"
             r="26.5"
             style="fill:#572ee5;fill-opacity:1" />
          <mask
             id="mask-2"
             fill="white">
            <use
               xlink:href="#path-1"
               id="use10" />
          </mask>
          <use
             id="button-crear-gifo"
             fill="#572EE5"
             fill-rule="nonzero"
             xlink:href="#path-1"
             style="fill:#ffffff;fill-opacity:1" />
        </g>
      </g>
    </g>
  </g>
</svg>

<?xml version="1.0" encoding="UTF-8" standalone="no"?>
<svg
   xmlns:dc="http://purl.org/dc/elements/1.1/"
   xmlns:cc="http://creativecommons.org/ns#"
   xmlns:rdf="http://www.w3.org/1999/02/22-rdf-syntax-ns#"
   xmlns:svg="http://www.w3.org/2000/svg"
   xmlns="http://www.w3.org/2000/svg"
   xmlns:xlink="http://www.w3.org/1999/xlink"
   xmlns:sodipodi="http://sodipodi.sourceforge.net/DTD/sodipodi-0.dtd"
   xmlns:inkscape="http://www.inkscape.org/namespaces/inkscape"
   width="60"
   height="60"
   viewBox="0 0 60 60"
   version="1.1"
   id="svg19"
   sodipodi:docname="button_crear_gifo_hover.svg"
   inkscape:version="0.92.5 (2060ec1f9f, 2020-04-08)">
  <metadata
     id="metadata23">
    <rdf:RDF>
      <cc:Work
         rdf:about="">
        <dc:format>image/svg+xml</dc:format>
        <dc:type
           rdf:resource="http://purl.org/dc/dcmitype/StillImage" />
        <dc:title>button-crear-gifo</dc:title>
      </cc:Work>
    </rdf:RDF>
  </metadata>
  <sodipodi:namedview
     pagecolor="#ffffff"
     bordercolor="#666666"
     borderopacity="1"
     objecttolerance="10"
     gridtolerance="10"
     guidetolerance="10"
     inkscape:pageopacity="0"
     inkscape:pageshadow="2"
     inkscape:window-width="1920"
     inkscape:window-height="1023"
     id="namedview21"
     showgrid="false"
     inkscape:zoom="4.3703704"
     inkscape:cx="-20.25"
     inkscape:cy="27"
     inkscape:window-x="0"
     inkscape:window-y="0"
     inkscape:window-maximized="1"
     inkscape:current-layer="00-UI-Kit" />
  <!-- Generator: Sketch 63.1 (92452) - https://sketch.com -->
  <title
     id="title2">button-crear-gifo</title>
  <desc
     id="desc4">Created with Sketch.</desc>
  <defs
     id="defs7">
    <path
       d="m 27,19 c 0.552285,0 1,0.447715 1,1 v 0 6 h 6 c 0.512836,0 0.935507,0.38604 0.993272,0.883379 L 35,27 c 0,0.552285 -0.447715,1 -1,1 v 0 h -6 v 6 c 0,0.512836 -0.38604,0.935507 -0.883379,0.993272 L 27,35 c -0.552285,0 -1,-0.447715 -1,-1 v 0 -6 h -6 c -0.512836,0 -0.935507,-0.38604 -0.993272,-0.883379 L 19,27 c 0,-0.552285 0.447715,-1 1,-1 v 0 h 6 v -6 c 0,-0.512836 0.38604,-0.935507 0.883379,-0.993272 z"
       id="path-1"
       inkscape:connector-curvature="0" />
  </defs>
  <g
     id="GIFOS"
     style="fill:none;fill-rule:evenodd;stroke:none;stroke-width:1"
     transform="translate(0,6)">
    <g
       id="00-UI-Kit"
       transform="translate(-169,-2765)">
      <g
         id="g15"
         transform="translate(172,2762)">
        <g
           id="Group-3">
          <circle
             id="Oval-3"
             cx="27"
             cy="27"
             r="26.5"
             style="fill:#572ee5;fill-opacity:1;fill-rule:nonzero;stroke:#572ee5" />
          <mask
             id="mask-2"
             fill="white">
            <use
               xlink:href="#path-1"
               id="use10"
               x="0"
               y="0"
               width="100%"
               height="100%" />
          </mask>
          <use
             id="button-crear-gifo"
             xlink:href="#path-1"
             style="fill:#ffffff;fill-opacity:1;fill-rule:nonzero"
             x="0"
             y="0"
             width="100%"
             height="100%" />
        </g>
      </g>
    </g>
  </g>
</svg>
